X:1
T:Title
%%score { ( 1 3 ) | 2 }
L:1/8
M:3/4
K:A
V:1 treble nm="Grand Piano"
V:3 treble 
V:2 bass 
V:1
 z2 z2[Q:1/4=100] [Ac]>[Ac] | [Ac]3 [EB] [EA][Ad] | [Ac]4 [ce]>[ce] | [ce]3 [Bd] [Ac][GB] | %4
 [Ac]4 [Ac][Ac] | [GB]4 [FA]2 | [EG]4 [Ac]>[Ac] | [Ac]3 [EB] [EA][Ad] | [Ac]4 [ce]>[ce] | %9
 [ce]3 [Bd] [Ac][GB] | [Ac]4 [Ac][Ac] | [GB]4 [Gd]2 | [Ac]4 z2 |[M:4/4] [ce]4 [ce]4 | %14
 [ce]>[Bd] [Ac][Bd] [ce]2 [Ac]2 | [Bd]4 [Bd]4 | [ce]>[Bd] [Ac][GB] [Ac]4 | [ce]4 [ce]4 | %18
 [ce]>[Bd] [Ac][Bd] [ce]2 [Ac]2 | ABcf [ce]2 [Bd]2 |[M:3/4] [Ac]6 |] %21
V:2
 z2 z2 [A,,E,]>[A,,E,] | [A,,E,]3 [A,,D,] [A,,C,][A,,F,] | [A,,E,]4 [A,,A,]>[A,,A,] | %3
 [A,,A,]3 [A,,E,] [A,,E,][A,,E,] | [A,,E,]4 [A,,E,][A,,E,] | [B,,E,]4 [B,,^D,]2 | %6
 [E,,E,]4 [A,,E,]>[A,,E,] | [A,,E,]3 [A,,D,] [A,,C,][A,,F,] | [A,,E,]4 [A,,A,]>[A,,A,] | %9
 [A,,A,]3 [A,,E,] [A,,E,][A,,E,] | [A,,E,]4 [A,,E,][A,,E,] | E,4 E,2 | [A,,E,]4 z2 | %13
[M:4/4] [A,,A,]2 [A,,A,]2 [A,,A,]2 [A,,A,]2 | [A,,A,]>[A,,E,] [A,,E,][A,,E,] [A,,A,]2 [A,,E,]2 | %15
 [E,G,]2 z2 [E,G,]2 z2 | [E,A,]>E, E,E, [A,,E,]4 | [A,,A,]2 [A,,A,]2 [A,,A,]2 [A,,A,]2 | %18
 [A,,A,]>[A,,E,] [A,,E,][A,,E,] [A,,A,]2 [A,,E,]2 | z2 z[K:treble] d[K:bass] [E,A,]2 E,2 | %20
[M:3/4] [A,,E,]6 |] %21
V:3
 x6 | x6 | x6 | x6 | x6 | x6 | x6 | x6 | x6 | x6 | x6 | x6 | x6 |[M:4/4] x8 | x8 | %15
 z2 [E,G,]2 z2 [E,G,]2 | x8 | x8 | x8 | x8 |[M:3/4] x6 |] %21

